the-plus-addons-for-block-editor/assets/images/social-review/style-3.svg

<svg xmlns="http://www.w3.org/2000/svg" width="1000" height="700" fill="none"><path fill="#FCFCFF" d="M0 0h1000v700H0z"/><rect width="726" height="315" x="137.5" y="118.5" fill="#F2F2F2" stroke="#D5D5D5" rx="29.5"/><path stroke="#D5D5D5" stroke-width="5" d="M197 262h606M197 292h606.442M197 322h606.442M197 352h606M197 382h324"/><g clip-path="url(#a)"><path fill="#D5D5D5" d="m219.729 189.962 8.568 1.264c.71.101 1.306.602 1.533 1.288a1.92 1.92 0 0 1-.471 1.956l-6.213 6.093 1.466 8.741a1.911 1.911 0 0 1-2.778 2.004l-7.656-4.085-7.65 4.085a1.921 1.921 0 0 1-2.015-.137 1.899 1.899 0 0 1-.763-1.867l1.466-8.741-6.214-6.093a1.917 1.917 0 0 1-.47-1.956 1.896 1.896 0 0 1 1.534-1.288l8.561-1.264 3.84-7.89a1.903 1.903 0 0 1 3.428 0l3.834 7.89Z"/></g><g clip-path="url(#b)"><path fill="#D5D5D5" d="m258.494 189.962 8.568 1.264a1.902 1.902 0 0 1 1.532 1.288 1.915 1.915 0 0 1-.471 1.956l-6.213 6.093 1.467 8.741a1.904 1.904 0 0 1-.769 1.867 1.913 1.913 0 0 1-2.01.137l-7.655-4.085-7.65 4.085a1.923 1.923 0 0 1-2.016-.137 1.9 1.9 0 0 1-.763-1.867l1.467-8.741-6.214-6.093a1.917 1.917 0 0 1-.471-1.956 1.897 1.897 0 0 1 1.535-1.288l8.56-1.264 3.84-7.89a1.901 1.901 0 0 1 1.712-1.074c.733 0 1.401.417 1.717 1.074l3.834 7.89Z"/></g><g clip-path="url(#c)"><path fill="#D5D5D5" d="m297.258 189.962 8.568 1.264c.71.101 1.306.602 1.533 1.288a1.917 1.917 0 0 1-.471 1.956l-6.213 6.093 1.467 8.741a1.904 1.904 0 0 1-.769 1.867 1.913 1.913 0 0 1-2.01.137l-7.656-4.085-7.65 4.085a1.921 1.921 0 0 1-2.015-.137 1.9 1.9 0 0 1-.763-1.867l1.467-8.741-6.214-6.093a1.917 1.917 0 0 1-.471-1.956 1.896 1.896 0 0 1 1.534-1.288l8.561-1.264 3.84-7.89a1.9 1.9 0 0 1 1.711-1.074c.734 0 1.402.417 1.718 1.074l3.833 7.89Z"/></g><g clip-path="url(#d)"><path fill="#D5D5D5" d="m336.023 189.962 8.568 1.264c.71.101 1.306.602 1.532 1.288a1.915 1.915 0 0 1-.471 1.956l-6.213 6.093 1.467 8.741a1.911 1.911 0 0 1-2.778 2.004l-7.656-4.085-7.65 4.085a1.921 1.921 0 0 1-2.015-.137 1.9 1.9 0 0 1-.764-1.867l1.467-8.741-6.214-6.093a1.917 1.917 0 0 1-.47-1.956 1.894 1.894 0 0 1 1.534-1.288l8.561-1.264 3.84-7.89a1.903 1.903 0 0 1 3.428 0l3.834 7.89Z"/></g><g clip-path="url(#e)"><path fill="#D5D5D5" d="m374.788 189.962 8.568 1.264a1.902 1.902 0 0 1 1.532 1.288 1.915 1.915 0 0 1-.471 1.956l-6.213 6.093 1.467 8.741a1.904 1.904 0 0 1-.769 1.867 1.913 1.913 0 0 1-2.01.137l-7.655-4.085-7.65 4.085a1.923 1.923 0 0 1-2.016-.137 1.9 1.9 0 0 1-.763-1.867l1.467-8.741-6.214-6.093a1.92 1.92 0 0 1-.471-1.956 1.897 1.897 0 0 1 1.535-1.288l8.561-1.264 3.839-7.89a1.901 1.901 0 0 1 1.712-1.074c.733 0 1.401.417 1.717 1.074l3.834 7.89Z"/></g><path fill="#D5D5D5" d="M751 196c0 14.359 11.641 26 26 26s26-11.641 26-26-11.641-26-26-26-26 11.641-26 26ZM151 514.5c0 27.89 22.61 50.5 50.5 50.5s50.5-22.61 50.5-50.5-22.61-50.5-50.5-50.5-50.5 22.61-50.5 50.5Z"/><path fill="#F2F2F2" d="M176.803 539.197v-5.989c0-6.59 10.782-11.982 23.96-11.982s23.96 5.392 23.96 11.982v5.989h-47.92Zm11.978-35.938a11.984 11.984 0 0 1 14.316-11.752 11.978 11.978 0 0 1 8.733 16.333 11.976 11.976 0 0 1-11.067 7.397 11.982 11.982 0 0 1-11.982-11.978Z"/><path stroke="#888" stroke-width="10" d="M284 495h216"/><path stroke="#D5D5D5" stroke-width="5" d="M284 535h127.907"/><defs><clipPath id="a"><path fill="#fff" d="M197 181h34.344v30.528H197z"/></clipPath><clipPath id="b"><path fill="#fff" d="M235.765 181h34.344v30.528h-34.344z"/></clipPath><clipPath id="c"><path fill="#fff" d="M274.529 181h34.344v30.528h-34.344z"/></clipPath><clipPath id="d"><path fill="#fff" d="M313.294 181h34.344v30.528h-34.344z"/></clipPath><clipPath id="e"><path fill="#fff" d="M352.059 181h34.344v30.528h-34.344z"/></clipPath></defs></svg>

<svg width="1000" height="700" viewBox="0 0 1000 700" fill="none" xmlns="http://www.w3.org/2000/svg">
<rect width="1000" height="700" fill="#FCFCFF"/>
<rect x="137.5" y="118.5" width="726" height="315" rx="29.5" fill="#F2F2F2" stroke="#D5D5D5"/>
<path d="M197 262H803" stroke="#D5D5D5" stroke-width="5"/>
<path d="M197 292H803.442" stroke="#D5D5D5" stroke-width="5"/>
<path d="M197 322H803.442" stroke="#D5D5D5" stroke-width="5"/>
<path d="M197 352H803" stroke="#D5D5D5" stroke-width="5"/>
<path d="M197 382H521" stroke="#D5D5D5" stroke-width="5"/>
<g clip-path="url(#clip0_15_143)">
<path d="M219.729 189.962L228.297 191.226C229.007 191.327 229.603 191.828 229.83 192.514C230.056 193.206 229.871 193.957 229.359 194.47L223.146 200.563L224.612 209.304C224.732 210.02 224.439 210.747 223.843 211.171C223.253 211.594 222.472 211.648 221.834 211.308L214.178 207.223L206.528 211.308C205.884 211.648 205.103 211.594 204.513 211.171C203.923 210.747 203.624 210.02 203.75 209.304L205.216 200.563L199.002 194.47C198.489 193.957 198.306 193.206 198.532 192.514C198.757 191.828 199.351 191.327 200.066 191.226L208.627 189.962L212.467 182.072C212.783 181.415 213.451 180.998 214.178 180.998C214.911 180.998 215.579 181.415 215.895 182.072L219.729 189.962Z" fill="#D5D5D5"/>
</g>
<g clip-path="url(#clip1_15_143)">
<path d="M258.494 189.962L267.062 191.226C267.771 191.327 268.368 191.828 268.594 192.514C268.821 193.206 268.636 193.957 268.123 194.47L261.91 200.563L263.377 209.304C263.496 210.02 263.204 210.747 262.608 211.171C262.017 211.594 261.236 211.648 260.598 211.308L252.943 207.223L245.293 211.308C244.649 211.648 243.868 211.594 243.277 211.171C242.687 210.747 242.389 210.02 242.514 209.304L243.981 200.563L237.767 194.47C237.253 193.957 237.071 193.206 237.296 192.514C237.521 191.828 238.116 191.327 238.831 191.226L247.391 189.962L251.231 182.072C251.547 181.415 252.215 180.998 252.943 180.998C253.676 180.998 254.344 181.415 254.66 182.072L258.494 189.962Z" fill="#D5D5D5"/>
</g>
<g clip-path="url(#clip2_15_143)">
<path d="M297.258 189.962L305.826 191.226C306.536 191.327 307.132 191.828 307.359 192.514C307.585 193.206 307.401 193.957 306.888 194.47L300.675 200.563L302.142 209.304C302.261 210.02 301.969 210.747 301.373 211.171C300.782 211.594 300.001 211.648 299.363 211.308L291.707 207.223L284.057 211.308C283.414 211.648 282.632 211.594 282.042 211.171C281.452 210.747 281.154 210.02 281.279 209.304L282.746 200.563L276.532 194.47C276.018 193.957 275.836 193.206 276.061 192.514C276.286 191.828 276.88 191.327 277.595 191.226L286.156 189.962L289.996 182.072C290.312 181.415 290.98 180.998 291.707 180.998C292.441 180.998 293.109 181.415 293.425 182.072L297.258 189.962Z" fill="#D5D5D5"/>
</g>
<g clip-path="url(#clip3_15_143)">
<path d="M336.023 189.962L344.591 191.226C345.301 191.327 345.897 191.828 346.123 192.514C346.35 193.206 346.165 193.957 345.652 194.47L339.439 200.563L340.906 209.304C341.025 210.02 340.733 210.747 340.137 211.171C339.547 211.594 338.766 211.648 338.128 211.308L330.472 207.223L322.822 211.308C322.178 211.648 321.397 211.594 320.807 211.171C320.216 210.747 319.918 210.02 320.043 209.304L321.51 200.563L315.296 194.47C314.783 193.957 314.6 193.206 314.826 192.514C315.05 191.828 315.645 191.327 316.36 191.226L324.921 189.962L328.761 182.072C329.077 181.415 329.744 180.998 330.472 180.998C331.205 180.998 331.873 181.415 332.189 182.072L336.023 189.962Z" fill="#D5D5D5"/>
</g>
<g clip-path="url(#clip4_15_143)">
<path d="M374.788 189.962L383.356 191.226C384.065 191.327 384.662 191.828 384.888 192.514C385.115 193.206 384.93 193.957 384.417 194.47L378.204 200.563L379.671 209.304C379.79 210.02 379.498 210.747 378.902 211.171C378.312 211.594 377.53 211.648 376.892 211.308L369.237 207.223L361.587 211.308C360.943 211.648 360.162 211.594 359.571 211.171C358.981 210.747 358.683 210.02 358.808 209.304L360.275 200.563L354.061 194.47C353.548 193.957 353.365 193.206 353.59 192.514C353.815 191.828 354.41 191.327 355.125 191.226L363.686 189.962L367.525 182.072C367.841 181.415 368.509 180.998 369.237 180.998C369.97 180.998 370.638 181.415 370.954 182.072L374.788 189.962Z" fill="#D5D5D5"/>
</g>
<path d="M751 196C751 210.359 762.641 222 777 222C791.359 222 803 210.359 803 196C803 181.641 791.359 170 777 170C762.641 170 751 181.641 751 196Z" fill="#D5D5D5"/>
<path d="M151 514.5C151 542.39 173.61 565 201.5 565C229.39 565 252 542.39 252 514.5C252 486.61 229.39 464 201.5 464C173.61 464 151 486.61 151 514.5Z" fill="#D5D5D5"/>
<path d="M176.803 539.197V533.208C176.803 526.618 187.585 521.226 200.763 521.226C213.941 521.226 224.723 526.618 224.723 533.208V539.197H176.803ZM188.781 503.259C188.781 500.889 189.483 498.573 190.8 496.603C192.116 494.633 193.987 493.097 196.175 492.19C198.364 491.283 200.773 491.045 203.097 491.507C205.421 491.969 207.556 493.11 209.231 494.785C210.907 496.46 212.048 498.595 212.511 500.919C212.973 503.242 212.736 505.651 211.83 507.84C210.923 510.03 209.388 511.901 207.418 513.217C205.448 514.534 203.132 515.237 200.763 515.237C197.586 515.237 194.538 513.976 192.292 511.729C190.045 509.483 188.782 506.436 188.781 503.259Z" fill="#F2F2F2"/>
<path d="M284 495H500" stroke="#888888" stroke-width="10"/>
<path d="M284 535H411.907" stroke="#D5D5D5" stroke-width="5"/>
<defs>
<clipPath id="clip0_15_143">
<rect width="34.3439" height="30.528" fill="white" transform="translate(197 181)"/>
</clipPath>
<clipPath id="clip1_15_143">
<rect width="34.3439" height="30.528" fill="white" transform="translate(235.765 181)"/>
</clipPath>
<clipPath id="clip2_15_143">
<rect width="34.3439" height="30.528" fill="white" transform="translate(274.529 181)"/>
</clipPath>
<clipPath id="clip3_15_143">
<rect width="34.3439" height="30.528" fill="white" transform="translate(313.294 181)"/>
</clipPath>
<clipPath id="clip4_15_143">
<rect width="34.3439" height="30.528" fill="white" transform="translate(352.059 181)"/>
</clipPath>
</defs>
</svg>
